X:1
T:Sweete kate - Jones
T:#
%%score [ 1 2 ] ( 3 4 )
L:1/8
Q:1/4=120
M:4/4
K:F
V:1 treble nm="Soprano" snm="S"
V:2 treble nm="Alto" snm="A"
V:3 treble nm="Lute" snm="Lute"
V:4 treble 
V:1
"^Sweete kate" (GFGA) B4 | (AGAB) c4 | Bcd_e f2"^Robert Jones\n(c. 1577-?)" d2 |[M:4/4] (c3 B) B4 | %4
w: Sweete * * * Kate|of * * * late|ran a- way and left me|playn\- * ing.|
w: Un\- * * * kind,|I * * * find|thy de- light is in tor-|ment\- * ing.|
w: Her * * * words,|like * * * swords,|cut my sor- ry heart in|sun\- * der.|
"^5" (GFGA) B4 :| (AGAB) c4 | Bcd_e f2 d2 | (c3 B) B4 :| z4 BBBA |"^10" G2 z2 cccB | A2 z2 dddc | %11
w: A\- * * * bide|I * * * cride|or I die with thy dis-|day\- * ning.|Te- hee- hee quoth|shee glad- ly would I|see a- ny man to|
w: A\- * * * bide|I * * * cride|or I die with thy con-|sen\- * ting.|Te- hee- hee quoth|shee make no foole of|me, men I know have|
w: Her * * * flouts|with * * * doubts|kept my heart's af- fec- tions|un\- * der.|Te- hee- hee quoth|shee what a foole is|he, stands in awe of|
 B2 cB (A3 G) |[M:3/2] G4 z4 BBBA |[M:4/4] G2 z2 cccB |[M:4/4]"^15" A2 z2 dddc | B2 cB (A3 G) | %16
w: die with * lo\- *|ving Ne- ver a- ny|yet died of such a|fitte Nei- ther have I|feare of * pro\- *|
w: oaths at * plea\- *|sure. But their hopes at-|tained they be- wray they|fained And their oaths are|kept at * lea\- *|
w: once de\- * ny\- *|ing. Cause I had e-|nough to be- come more|rough, So I did, O|hap- py * try\- *|
 G8 |] %17
w: ving.|
w: sure.|
w: ing!|
V:2
 z4 (DCDE) | F4 (EDEF) | G2 FG AF B2- |[M:4/4] B2 A2 B2 B2 | z4 (DCDE) :| F4 (EDEF) | %6
w: Sweete * * *|Kate of * * *|late ran a- way and left|* me playn- ing.|A\- * * *|bide I * * *|
w: Un\- * * *|kind, I * * *|find thy de- light is in|* tor- ment- ing.|A\- * * *|bide I * * *|
w: Her * * *|words, like * * *|swords, cut my sor- ry heart|* in sun- der.|Her * * *|flouts with * * *|
 G2 FG AF B2- | B2 A2 B2 B2 :| BBBA G2 z2 | cccB A2 z2 | dddc B2 A2 | (D2 E2 ^FGAF) | %12
w: cride or I die with thy|* dis- day- ning.|Te- hee- hee quoth shee|glad- ly would I see|a- ny man to die with|lo\- * * * * *|
w: cride or I die with thy|* con- sen- ting.|Te- hee- hee quoth shee|make no foole of me,|men I know have oaths at|plea\- * * * * *|
w: doubts kept my heart's af- fec\-|* tions un- der.|Te- hee- hee quoth shee|what a foole is he,|stands in awe of once de-|ny\- * * * * *|
[M:3/2] G4 BBBA G2 z2 |[M:4/4] cccB A2 z2 |[M:4/4] dddc B2 A2 | (D2 E2 ^FGAF) | G8 |] %17
w: ving. Ne- ver a- ny yet|died of such a fitte|Nei- ther have I feare of|pro\- * * * * *|ving.|
w: sure. But their hopes at- tained|they be- wray they fained|And their oaths are kept at|lea\- * * * * *|sure.|
w: ing. Cause I had e- nough|to be- come more rough|So I did, O hap- py|try\- * * * * *|ing!|
V:3
 babc' d'4 | fefg ab c'2 | [Bg]4 [df]2 [df]2 |[M:4/4]"^I" AB c2 [df]4 | babc' d'4 :| fefg ab c'2 | %6
 [Bg]4 [df]2 [df]2 | AB c2 [df]4 :| [Gdg]4 [dg]3 f | [_eg]4 [cf]2 [gc']2 | [Ad]2 Bc [Bg]2 [da]2 | %11
 [Bd]2 [Ge]2 [d^f]4 |[M:3/2] [G=Bdg]4 [Gdg]4 [dg]3 f |[M:4/4] [_eg]4 [cf]2 [gc']2 | %14
[M:4/4] [Ad]2 Bc [Bg]2 [da]2 | [Bd]2 [Ge]2 [d^f]4 | [DG=Bdg]8 |] %17
V:4
 [G,Gd]8 | F4 C3 B, | _E4 D2 B,2 |[M:4/4] [Ff]4 B,4 | [G,Gd]8 :| F4 C3 B, | _E4 D2 B,2 | %7
 [Ff]4 B,4 :| G,4 G3 F | _E4 F2 C2 | D4 G2 ^F2 | G2 C2 D2 D,2 |[M:3/2] [G,D]4 G,4 G3 F | %13
[M:4/4] _E4 F2 C2 |[M:4/4] D4 G2 ^F2 | G2 C2 D2 D,2 | G,8 |] %17

